!!!OTL: DAS KANAPEE IST MEIN VERGNUEGEN
!!!ARE: Europa, Mitteleuropa, Deutschland, Thueringen
!!!SCT: B0710
!!!YEM: Copyright 1995, estate of Helmut Schaffrath.
**kern
*ICvox
*Ivox
*M2/4
*k[b-e-]
*B-:
{8f
=1
4b-
8a
8g
=2
4f
4f
=3
4g
4a
=4
8b-
8f
8f}
{8f
=5
8g
8f
8e-
8d
=6
4c
4f
=7
4f
8r}
{8f
=8
4b-
8a
8g
=9
4f
4f
=10
4g
4a
=11
8b-
8f
8f}
{8f
=12
8g
8f
8e-
8d
=13
4c
4f
=14
4f
8r}
{8f
=15
8d
8f
8f
8f
=16
8g
8f
8f}
{8f
=17
8d
8f
8f
8f
=18
8g
8f
8f}
{8f
=19
4b-
4cc
=20
4dd
4b-
=21
4cc
4a
=22
4b-
8r}
==
!!!AGN: Scherz - Lied
!!!ONB: ESAC (Essen Associative Code) Database: BOEHME
!!!AMT: simple duple
!!!AIN: vox
!!!EED: Helmut Schaffrath
!!!EEV: 1.0
*-
